frontend/icons/trash.svg

<svg xmlns="http://www.w3.org/2000/svg" viewBox="0 0 24 24"><path fill="#b02d45" d="M7 5c.007-1.232.075-1.867.327-2.362a3 3 0 0 1 1.311-1.311C9.159 1.061 9.835 1 11.2 1h1.6c1.365 0 2.041.061 2.562.327a3 3 0 0 1 1.311 1.311c.252.495.32 1.13.327 2.362h4a1 1 0 0 1 0 2h-1v10.2c0 1.925-.061 2.881-.436 3.616a4 4 0 0 1-1.748 1.748c-.735.375-1.691.436-3.616.436H9.8c-1.925 0-2.881-.061-3.616-.436a4 4 0 0 1-1.748-1.748C4.061 20.081 4 19.125 4 17.2V7H3a1 1 0 0 1 0-2zm11 2H6v10.2c0 1.436-.061 2.159.218 2.708.192.376.498.682.874.874.548.279 1.272.218 2.708.218h4.4c1.436 0 2.16.061 2.708-.218.376-.192.682-.498.874-.874.279-.548.218-1.272.218-2.708zM8.999 5h6.002c.007-.746.047-1.146-.11-1.454a1 1 0 0 0-.437-.437C14.119 2.938 13.676 3 12.8 3h-1.6c-.876 0-1.319-.062-1.654.109a1 1 0 0 0-.437.437c-.157.308-.117.708-.11 1.454M13 11.5a1 1 0 0 1 2 0v5a1 1 0 0 1-2 0zm-4 0a1 1 0 0 1 2 0v5a1 1 0 0 1-2 0z"/></svg>

<svg xmlns="http://www.w3.org/2000/svg" version="1.1" viewBox="0 0 24 24" role="img">
  <path fill="#b02d45" d="M7,5C7.007,3.768 7.075,3.133 7.327,2.638C7.615,2.074 8.074,1.615 8.638,1.327C9.159,1.061 9.835,1 11.2,1L12.8,1C14.165,1 14.841,1.061 15.362,1.327C15.926,1.615 16.385,2.074 16.673,2.638C16.925,3.133 16.993,3.768 17,5L21,5C21.552,5 22,5.448 22,6C22,6.552 21.552,7 21,7L20,7L20,17.2C20,19.125 19.939,20.081 19.564,20.816C19.181,21.569 18.569,22.181 17.816,22.564C17.081,22.939 16.125,23 14.2,23L9.8,23C7.875,23 6.919,22.939 6.184,22.564C5.431,22.181 4.819,21.569 4.436,20.816C4.061,20.081 4,19.125 4,17.2L4,7L3,7C2.448,7 2,6.552 2,6C2,5.448 2.448,5 3,5L7,5ZM18,7L6,7L6,17.2C6,18.636 5.939,19.359 6.218,19.908C6.41,20.284 6.716,20.59 7.092,20.782C7.64,21.061 8.364,21 9.8,21L14.2,21C15.636,21 16.36,21.061 16.908,20.782C17.284,20.59 17.59,20.284 17.782,19.908C18.061,19.36 18,18.636 18,17.2L18,7ZM8.999,5L15.001,5C15.008,4.254 15.048,3.854 14.891,3.546C14.795,3.358 14.642,3.205 14.454,3.109C14.119,2.938 13.676,3 12.8,3L11.2,3C10.324,3 9.881,2.938 9.546,3.109C9.358,3.205 9.205,3.358 9.109,3.546C8.952,3.854 8.992,4.254 8.999,5ZM13,11.5C13,10.948 13.448,10.5 14,10.5C14.552,10.5 15,10.948 15,11.5L15,16.5C15,17.052 14.552,17.5 14,17.5C13.448,17.5 13,17.052 13,16.5L13,11.5ZM9,11.5C9,10.948 9.448,10.5 10,10.5C10.552,10.5 11,10.948 11,11.5L11,16.5C11,17.052 10.552,17.5 10,17.5C9.448,17.5 9,17.052 9,16.5L9,11.5Z"/>
</svg>
